src/images/svg/symbols/index25-new.svg

<svg width="32" height="32" viewBox="0 0 32 32" fill="none" xmlns="http://www.w3.org/2000/svg">
<path d="M22.5 13.0001H24V22H22.5V32H21.5V22H20V13.0001H21.5V11.0001H22.5V13.0001Z" fill="#85ACB0"/>
<path d="M30 11V18H28.5V22H27.5V18H26V11H30Z" fill="#85ACB0"/>
<path d="M16.5 20V16H15.5V20H14V28H15.5V30H16.5V28H18V20H16.5Z" fill="#85ACB0"/>
<path d="M10.5 15H12V21H10.5V28H9.5V21H8V15H9.5V13H10.5V15Z" fill="#85ACB0"/>
<path d="M4.5 19H6V23H4.5V25H3.5V23H2V19H3.5V17H4.5V19Z" fill="#85ACB0"/>
<path d="M0 2C0 0.89543 0.895431 0 2 0H12C13.1046 0 14 0.895431 14 2V8C14 9.10457 13.1046 10 12 10H2C0.89543 10 0 9.10457 0 8V2Z" fill="#0E0E0E"/>
<path d="M6.61106 8.00031H2.65906V6.90431L4.37906 5.43231C4.53373 5.29898 4.6644 5.17898 4.77106 5.07231C4.87773 4.96031 4.96306 4.85365 5.02706 4.75231C5.0964 4.64565 5.1444 4.54165 5.17106 4.44031C5.20306 4.33898 5.21906 4.22965 5.21906 4.11231V4.00031C5.21906 3.89365 5.19773 3.80031 5.15506 3.72031C5.1124 3.64031 5.0564 3.57365 4.98706 3.52031C4.91773 3.46698 4.83773 3.42698 4.74706 3.40031C4.66173 3.37365 4.57373 3.36031 4.48306 3.36031C4.34973 3.36031 4.2324 3.38165 4.13106 3.42431C4.03506 3.46698 3.94973 3.52565 3.87506 3.60031C3.80573 3.66965 3.74706 3.75231 3.69906 3.84831C3.65106 3.93898 3.61373 4.03765 3.58706 4.14431L2.53906 3.74431C2.60306 3.55231 2.69106 3.37098 2.80306 3.20031C2.91506 3.02431 3.05373 2.87231 3.21906 2.74431C3.38973 2.61098 3.58973 2.50698 3.81906 2.43231C4.0484 2.35765 4.30706 2.32031 4.59506 2.32031C4.89906 2.32031 5.1684 2.36298 5.40306 2.44831C5.63773 2.53365 5.83506 2.65098 5.99506 2.80031C6.1604 2.94965 6.28573 3.12831 6.37106 3.33631C6.4564 3.53898 6.49906 3.76031 6.49906 4.00031C6.49906 4.24031 6.45906 4.45898 6.37906 4.65631C6.29906 4.85365 6.18973 5.04031 6.05106 5.21631C5.91773 5.38698 5.7604 5.54965 5.57906 5.70431C5.39773 5.85898 5.2084 6.01631 5.01106 6.17631L3.97106 6.99231H6.61106V8.00031Z" fill="white"/>
<path d="M11.1759 3.46431H8.63994L8.51994 5.23231H8.58394C8.63727 5.09898 8.69594 4.97898 8.75994 4.87231C8.82927 4.76031 8.90927 4.66698 8.99994 4.59231C9.0906 4.51231 9.19994 4.45098 9.32794 4.40831C9.45594 4.36565 9.60794 4.34431 9.78394 4.34431C10.0239 4.34431 10.2479 4.38431 10.4559 4.46431C10.6639 4.54431 10.8453 4.66165 10.9999 4.81631C11.1546 4.96565 11.2773 5.15231 11.3679 5.37631C11.4586 5.59498 11.5039 5.84298 11.5039 6.12031C11.5039 6.40298 11.4559 6.66698 11.3599 6.91231C11.2693 7.15231 11.1306 7.36031 10.9439 7.53631C10.7626 7.71231 10.5386 7.85098 10.2719 7.95231C10.0053 8.04831 9.70127 8.09631 9.35994 8.09631C9.08794 8.09631 8.84794 8.06698 8.63994 8.00831C8.43194 7.94965 8.24794 7.87231 8.08794 7.77631C7.92794 7.67498 7.78927 7.56031 7.67194 7.43231C7.5546 7.30431 7.45327 7.16831 7.36794 7.02431L8.23994 6.33631C8.3626 6.55498 8.50927 6.74165 8.67994 6.89631C8.8506 7.04565 9.07994 7.12031 9.36794 7.12031C9.65594 7.12031 9.87194 7.03765 10.0159 6.87231C10.1653 6.70698 10.2399 6.48831 10.2399 6.21631V6.15231C10.2399 5.89631 10.1653 5.69365 10.0159 5.54431C9.8666 5.39498 9.66127 5.32031 9.39994 5.32031C9.18127 5.32031 8.99994 5.36565 8.85594 5.45631C8.71727 5.54165 8.6106 5.62698 8.53594 5.71231L7.55194 5.57631L7.75994 2.41631H11.1759V3.46431Z" fill="white"/>
</svg>

<svg width="32" height="32" fill="none" xmlns="http://www.w3.org/2000/svg"><path d="M22.5 13H24v9h-1.5v10h-1V22H20v-9h1.5v-2h1v2ZM30 11v7h-1.5v4h-1v-4H26v-7h4ZM16.5 20v-4h-1v4H14v8h1.5v2h1v-2H18v-8h-1.5ZM10.5 15H12v6h-1.5v7h-1v-7H8v-6h1.5v-2h1v2ZM4.5 19H6v4H4.5v2h-1v-2H2v-4h1.5v-2h1v2Z" fill="#85ACB0"/><path d="M0 2a2 2 0 0 1 2-2h10a2 2 0 0 1 2 2v6a2 2 0 0 1-2 2H2a2 2 0 0 1-2-2V2Z" fill="#0E0E0E"/><path d="M6.611 8H2.66V6.904l1.72-1.472c.155-.133.285-.253.392-.36.107-.112.192-.218.256-.32.07-.106.117-.21.144-.312.032-.101.048-.21.048-.328V4a.586.586 0 0 0-.232-.48.88.88 0 0 0-.504-.16.901.901 0 0 0-.352.064.844.844 0 0 0-.256.176.945.945 0 0 0-.176.248c-.048.091-.085.19-.112.296l-1.048-.4c.064-.192.152-.373.264-.544.112-.176.25-.328.416-.456.17-.133.37-.237.6-.312a2.5 2.5 0 0 1 .776-.112c.304 0 .573.043.808.128.235.086.432.203.592.352.165.15.29.328.376.536.085.203.128.424.128.664 0 .24-.04.459-.12.656-.08.198-.19.384-.328.56-.133.171-.29.334-.472.488-.181.155-.37.312-.568.472l-1.04.816h2.64V8ZM11.176 3.464H8.64l-.12 1.768h.064c.053-.133.112-.253.176-.36.07-.112.15-.205.24-.28.09-.08.2-.141.328-.184.128-.042.28-.064.456-.064.24 0 .464.04.672.12a1.599 1.599 0 0 1 .912.912c.09.219.136.467.136.744 0 .283-.048.547-.144.792-.09.24-.23.448-.416.624a1.939 1.939 0 0 1-.672.416c-.267.096-.57.144-.912.144a2.66 2.66 0 0 1-.72-.088 2.26 2.26 0 0 1-.552-.232 2.042 2.042 0 0 1-.416-.344 2.456 2.456 0 0 1-.304-.408l.872-.688a2.2 2.2 0 0 0 .44.56c.17.15.4.224.688.224.288 0 .504-.082.648-.248.15-.165.224-.384.224-.656v-.064c0-.256-.075-.458-.224-.608-.15-.149-.355-.224-.616-.224-.219 0-.4.046-.544.136-.139.086-.245.171-.32.256l-.984-.136.208-3.16h3.416v1.048Z" fill="#fff"/></svg>
